X:1
T:Truehearted, Wholehearted
T:Truehearted, Wholehearted
T:George Coles Stebbins
T:Frances Ridley Havergal, 1878
T:Public Domain Courtesy of the Cyber Hymnal™
T:Public Domain Courtesy of the Cyber Hymnal™
C:George Coles Stebbins
Z:Public Domain
Z:Courtesy of the Cyber Hymnal™
%%score ( 1 2 ) ( 3 4 )
L:1/8
M:6/8
K:F
V:1 treble 
V:2 treble 
V:3 bass 
V:4 bass 
V:1
 [CF]3 C2 [CF] | [FA]3 F2 [FA] | [Ac]3 ([Bd][Ac])[^G=B] | [Ac]3 [FA]3 | [FB]3 [Fc]2 [Fc] | %5
w: 1.~True- heart- ed,|whole- heart- ed,|faith- ful * and|loy- al,|King of our|
w: 2.~True- heart- ed,|whole- heart- ed,|Sav- ior * all|glor- ious!|Take Thy great|
w: 3.~True- heart- ed,|whole- heart- ed!|Full- est * al-|le- giance|Yield- ing hence-|
w: 4.~True- heart- ed!|Sav- ior, Thou|know- est * our|stor- y,|Weak are the|
w: 5.~Whole- heart- ed!|Sav- ior be-|lov- èd * and|glor- ious,|Take Thy great|
w: 6.~Half- heart- ed,|false- heart- ed!|Heed we * the|warn- ing!|On- ly the|
w: 7.~Half- heart- ed!|Sav- ior, shall|aught be * with-|hold- en,|Giv- ing Thee|
w: 8.~Half- heart- ed?|Mas- ter, shall|a- ny * who|know Thee|Grudge Thee their|
 [Fd]3 [Fc]2 [Fc] | [F=B]3 [FA]2 [FG] | [Ec]6 | [CF]3 C2 [CF] | [FA]3 F2 [FA] | %10
w: lives, by Thy|grace we will|be!|Un- der Thy|stand- ard ex-|
w: pow- er and|reign there a-|lone,|O- ver our|wills and af-|
w: forth to our|glor- i- ous|king!|Val- iant en-|dea- vor and|
w: hearts that we|lay at Thy|feet,|Sin- ful and|treach- er- ous!|
w: pow- er and|reign Thou a-|lone,|O- ver our|wills and af-|
w: whole can be|per- fect- ly|true;|Bring the whole|of- fering, all|
w: part who has|giv- en us|all?|Bless- ings out-|pour- ing, and|
w: lives, Who has|laid down Thine|own?|Nay! we would|of- fer the|
 [Ac]3 ([Bd][Ac])[^G=B] | [Ac]3 [FA]3 | [FB]3 [Fc]2 [Fc] | [Fd]3 [Fc]2 [EB] | [FA]3 [EA]2 [EG] | %15
w: alt- ed * and|roy- al,|Strong in Thy|strength we will|bat- tle for|
w: fect- ions * vic-|tor- ious,|Free- ly sur-|rend- ered and|whol- ly Thine|
w: lov- ing * o-|be- dience|Free- ly and|joy- ous- ly|now would we|
w: yet, for * Thy|glor- y,|Heal them, and|cleanse them from|sin and de-|
w: fect- ions * vic-|tor- ious—|Free- ly sur-|rend- ered and|whol- ly Thine|
w: tim- id * thought|scorn- ing,|True- heart- ed|on- ly if|whole- heart- ed|
w: prom- is- * es|gold- en|Pledg- ing, with|nev- er re-|serve or re-|
w: hearts that * we|owe Thee,|Live for Thy|love and Thy|glor- y a-|
 F6 ||"^Refrain" [Ac]3- [Ac][^G=B][Ac] | [Bd]3 [Ac]3 | [FA]4 [F^G][FA] | [GB]3 [FA]3 | %20
w: Thee.|||||
w: own.|||||
w: bring.|Peal * out the|watch- word!|Si- lence it|nev- er!|
w: ceit.|||||
w: own.|||||
w: too.|||||
w: call!|||||
w: lone.|||||
 [Bd]4 [Ac][^G=B] | [Ac]3 [FA]2 [FA] | [G=B]3 ([FB][FA])[FB] | ([Ec]3 [Bc]3) | [Ac]4 [^G=B][Ac] | %25
w: |||||
w: |||||
w: Song of our|spir- its, re-|joic- ing * and|free; *|Peal out the|
w: |||||
w: |||||
w: |||||
w: |||||
w: |||||
 [Bd]3 [Ac]3 | [FA]4 [F^G][FA] | [FB]3 [FA]3 | [Bd]4 [Ac][^G=B] | [Ac]3 F2 [FB] | %30
w: |||||
w: |||||
w: watch- word!|Loy- al for-|ev- er!|King of our|lives, by Thy|
w: |||||
w: |||||
w: |||||
w: |||||
w: |||||
 [FA]3 [EA]2 [EG] | [CF]6 |] %32
w: ||
w: ||
w: grace we will|be.|
w: ||
w: ||
w: ||
w: ||
w: ||
V:2
 x3 C2 x | x3 F2 x | x6 | x6 | x6 | x6 | x6 | x6 | x3 C2 x | x3 F2 x | x6 | x6 | x6 | x6 | x6 | %15
 F6 || x6 | x6 | x6 | x6 | x6 | x6 | x6 | x6 | x6 | x6 | x6 | x6 | x6 | x3 F2 x | x6 | x6 |] %32
V:3
 [F,A,]3 [F,A,]2 [F,A,] | [F,C]3 [F,A,]2 [F,C] | [F,F]3 [F,F]2 [F,D] | [F,F]3 [F,C]3 | %4
 [D,B,]3 [F,A,]2 [F,A,] | B,3 [A,C]2 [A,C] | [G,D]3 [G,C]2 [G,=B,] | [C,C]6 | %8
 [F,A,]3 [F,A,]2 [F,A,] | [F,C]3 [F,A,]2 [F,C] | [F,F]3 [F,F]2 [F,D] | [F,F]3 [F,C]3 | %12
 [D,B,]3 [F,A,]2 [F,A,] | B,3 [A,C]2 [G,C] | C3 [C,C]2 [C,B,] | [F,A,]6 || z3 [F,A,][F,B,][F,C] | %17
 [F,F]3 [F,F]3 | z3 [F,C][F,=B,][F,C] | [F,D]3 [F,C]3 | z3 [F,F][F,F][F,F] | [F,F]3 [F,C]2 z | %22
 z2 G, [G,=B,][G,D] x | [C,C]6 | z3 [F,C][F,D][F,C] | [F,F]3 [F,F]3 | z3 [F,C][F,=B,][F,C] | %27
 [F,D]3 [F,C]3 | z3 [F,F][F,F][F,F] | [F,F]3 [A,C]2 [B,D] | C3 [C,C]2 [C,B,] | [F,A,]6 |] %32
V:4
 x6 | x6 | x6 | x6 | x6 | x6 | x6 | x6 | x6 | x6 | x6 | x6 | x6 | B,3 x3 | x6 | x6 || x6 | x6 | %18
 x6 | x6 | x6 | x6 | x2 G, G, x2 | x6 | x6 | x6 | x6 | x6 | x6 | x6 | C3 x3 | x6 |] %32

